X:1
T:Dislyll y Donn
T:Ebb of the Tides, The
M:6/8
L:1/8
R:Air
Q:"Gayly"
N:This is a Key peculiar to the Ancient Welsh Music, which
N:is called Gogywait: The E, or third above the key-note
N:being flat.
B:Edward Jones – Musical and Poetical Relicks of the Welsh Bards (1784, p. 134)
Z:AK/Fiddler’s Companion
K:C
G|c2c cdc|(B3G2)G|_e2 e efe|(d3B2)d|
_e2d c2c|B2A G2G|ABc d_ec|(B3 G2)F|GAB c2||
G|c2c (cdf) c|B3 G2G|_e2e (ef) e|d3 B2d|
_e2dc2c|B2A G2G|(AB) c d=e c|B3 G2F|G A B .c2!fermata!||

